X:84
T:RVW2/2/84 The Old-Fashioned Farmer
C:John Denny, Billericay, Essex, 25 April 1904
L:1/8
Q:1/4=90
M:2/4
I:linebreak $
K:G
"^(Editorial suggestion  " G | GG GD | GG GB | dd dc |$ Bd z"_(    )" d | ed cB | cc B2 | AA Ad |$ 
w: Good|peo- ple all I|pray at- tend and|lis- ten to my|sto- ry *|how our far- mers|used to live|in our na- tive|
BG z G | GG GD | GG GB | dd dc |$ Bd z2 | ed cB | cc BB | AA Ad |$ BG z2 | B>G GD | A>B cA | 
w: coun- try their|long grey coats they|used to wear to|church they'd go on|Sun- day|har- row reap and|plough and sow they's|go u- pon a|Mon- day|fol- de- lol- lol|fol- de- lol- lol-|
F G z |] 
w: li- do.|



